modules/coreui-icons-free/icons/fork.svg

<!-- Generated by IcoMoon.io -->
<svg version="1.1" xmlns="http://www.w3.org/2000/svg" width="24" height="24" viewBox="0 0 24 24">
<title>fork</title>
<path d="M20.813 4.313c0-0 0-0 0-0 0-1.968-1.595-3.563-3.563-3.563s-3.563 1.595-3.563 3.563c0 1.769 1.289 3.237 2.979 3.515l0.021 0.003v1.639c-0.001 1.242-1.008 2.249-2.25 2.25h-7.125v-3.924c1.619-0.358 2.812-1.781 2.812-3.483 0-1.968-1.595-3.563-3.562-3.563s-3.563 1.595-3.563 3.563c0 1.702 1.193 3.125 2.789 3.478l0.024 0.004v8.41c-1.619 0.358-2.813 1.781-2.813 3.483 0 1.968 1.595 3.563 3.563 3.563s3.562-1.595 3.562-3.563c0-1.702-1.193-3.125-2.789-3.478l-0.024-0.004v-2.986h7.125c2.070-0.002 3.748-1.68 3.75-3.75v-1.72c1.524-0.428 2.623-1.803 2.625-3.436v-0zM4.5 4.313c0-1.139 0.923-2.063 2.063-2.063s2.063 0.923 2.063 2.063c0 1.139-0.923 2.063-2.063 2.063v0c-1.139-0.001-2.061-0.924-2.063-2.062v-0zM8.625 19.688c0 1.139-0.923 2.063-2.063 2.063s-2.063-0.923-2.063-2.063c0-1.139 0.923-2.063 2.063-2.063v0c1.139 0.001 2.061 0.924 2.063 2.062v0zM17.25 6.375c-1.139 0-2.063-0.923-2.063-2.063s0.923-2.063 2.063-2.063c1.139 0 2.063 0.923 2.063 2.063v0c-0.001 1.139-0.924 2.061-2.062 2.063h-0z"></path>
</svg>

<svg xmlns="http://www.w3.org/2000/svg" width="24" height="24" viewBox="0 0 24 24"><path d="M20.813 4.313a3.563 3.563 0 10-4.147 3.515l.021.003V9.47a2.252 2.252 0 01-2.25 2.25H7.312V7.796a3.563 3.563 0 10-1.524-.005l.024.004v8.41a3.57 3.57 0 00-2.813 3.483 3.563 3.563 0 104.336-3.478l-.024-.004V13.22h7.125a3.754 3.754 0 003.75-3.75V7.75a3.575 3.575 0 002.625-3.436zm-16.313 0a2.063 2.063 0 112.063 2.063A2.065 2.065 0 014.5 4.314zm4.125 15.375a2.063 2.063 0 11-2.063-2.063 2.065 2.065 0 012.063 2.062zM17.25 6.375a2.063 2.063 0 112.063-2.063 2.065 2.065 0 01-2.062 2.063z"/></svg>
